dist/images/footer-insta.svg

<svg width="24" height="24" viewBox="0 0 24 24" fill="none" xmlns="http://www.w3.org/2000/svg">
<path d="M12 6C10.4087 6 8.88258 6.63214 7.75736 7.75736C6.63214 8.88258 6 10.4087 6 12C6 13.5913 6.63214 15.1174 7.75736 16.2426C8.88258 17.3679 10.4087 18 12 18C13.5913 18 15.1174 17.3679 16.2426 16.2426C17.3679 15.1174 18 13.5913 18 12C18 10.4087 17.3679 8.88258 16.2426 7.75736C15.1174 6.63214 13.5913 6 12 6ZM12 15.8966C10.9662 15.8966 9.97475 15.486 9.24375 14.755C8.51275 14.0239 8.10208 13.0325 8.10208 11.9987C8.10208 10.9649 8.51275 9.97346 9.24375 9.24245C9.97475 8.51145 10.9662 8.10078 12 8.10078C13.0338 8.10078 14.0252 8.51145 14.7562 9.24245C15.4873 9.97346 15.8979 10.9649 15.8979 11.9987C15.8979 13.0325 15.4873 14.0239 14.7562 14.755C14.0252 15.486 13.0338 15.8966 12 15.8966Z" fill="white"/>
<path d="M18.5 7C19.3284 7 20 6.32843 20 5.5C20 4.67157 19.3284 4 18.5 4C17.6716 4 17 4.67157 17 5.5C17 6.32843 17.6716 7 18.5 7Z" fill="white"/>
<path d="M23.3643 4.13307C23.0558 3.33757 22.5843 2.61515 21.98 2.01205C21.3758 1.40896 20.652 0.938485 19.8552 0.630738C18.9227 0.281247 17.9376 0.0922703 16.9418 0.0718562C15.6584 0.0159679 15.2519 0 11.9973 0C8.74278 0 8.32563 -1.33843e-07 7.05287 0.0718562C6.05783 0.0912265 5.07342 0.280241 4.14216 0.630738C3.34509 0.938126 2.62119 1.40848 2.01688 2.01161C1.41258 2.61475 0.94122 3.33736 0.633052 4.13307C0.282947 5.06402 0.0941109 6.04769 0.0746335 7.04192C0.0173256 8.32202 0 8.72788 0 11.9787C0 15.2282 -9.92969e-09 15.642 0.0746335 16.9155C0.0946246 17.9108 0.282541 18.8929 0.633052 19.8257C0.942085 20.6211 1.4139 21.3434 2.01835 21.9465C2.6228 22.5495 3.3466 23.0201 4.14349 23.328C5.07299 23.6915 6.0578 23.8941 7.05553 23.9268C8.33896 23.9827 8.74545 24 12 24C15.2546 24 15.6717 24 16.9445 23.9268C17.9402 23.9066 18.9252 23.7181 19.8578 23.3693C20.6545 23.0608 21.378 22.5899 21.9822 21.9867C22.5864 21.3834 23.058 20.661 23.3669 19.8656C23.7175 18.9341 23.9054 17.9521 23.9254 16.9568C23.9827 15.6766 24 15.2708 24 12.02C24 8.76913 24 8.35662 23.9254 7.08317C23.9099 6.07488 23.72 5.07684 23.3643 4.13307ZM21.741 16.817C21.7324 17.5839 21.5922 18.3436 21.3265 19.0632C21.1264 19.5807 20.82 20.0506 20.427 20.4427C20.0341 20.8348 19.5632 21.1405 19.0449 21.34C18.3322 21.6041 17.5793 21.744 16.8192 21.7538C15.5531 21.8124 15.1959 21.827 11.9494 21.827C8.70013 21.827 8.36828 21.827 7.07819 21.7538C6.31843 21.7445 5.56596 21.6045 4.85384 21.34C4.33366 21.1417 3.86095 20.8366 3.46631 20.4444C3.07167 20.0522 2.76389 19.5817 2.56286 19.0632C2.30091 18.3514 2.16079 17.6006 2.14838 16.8423C2.09107 15.5782 2.07774 15.2216 2.07774 11.98C2.07774 8.73719 2.07774 8.40585 2.14838 7.11643C2.15699 6.35 2.29719 5.59071 2.56286 4.87159C2.96935 3.82169 3.80231 2.99534 4.85384 2.59348C5.56631 2.33019 6.31856 2.19024 7.07819 2.17964C8.34562 2.12242 8.70147 2.10645 11.9494 2.10645C15.1972 2.10645 15.5304 2.10645 16.8192 2.17964C17.5794 2.18877 18.3323 2.32877 19.0449 2.59348C19.5632 2.79344 20.034 3.0994 20.4269 3.49172C20.8198 3.88404 21.1262 4.35405 21.3265 4.87159C21.5885 5.58343 21.7286 6.33421 21.741 7.09248C21.7983 8.35795 21.813 8.71324 21.813 11.9561C21.813 15.1976 21.813 15.5462 21.7557 16.8184H21.741V16.817Z" fill="white"/>
</svg>

<svg width="24" height="24" fill="none" xmlns="http://www.w3.org/2000/svg"><path d="M12 6a6 6 0 1 0 0 12 6 6 0 0 0 0-12zm0 9.897A3.898 3.898 0 1 1 12 8.1a3.898 3.898 0 0 1 0 7.796zM18.5 7a1.5 1.5 0 1 0 0-3 1.5 1.5 0 0 0 0 3z" fill="#fff"/><path d="M23.364 4.133A6.126 6.126 0 0 0 19.855.631a8.816 8.816 0 0 0-2.913-.56C15.658.017 15.252 0 11.997 0 8.743 0 8.326 0 7.053.072a8.74 8.74 0 0 0-2.91.559 6.132 6.132 0 0 0-3.51 3.502 8.75 8.75 0 0 0-.558 2.909C.017 8.322 0 8.728 0 11.979c0 3.25 0 3.663.075 4.937.02.995.208 1.977.558 2.91a6.134 6.134 0 0 0 3.51 3.502c.93.364 1.915.566 2.913.599C8.339 23.983 8.746 24 12 24c3.255 0 3.672 0 4.945-.073a8.827 8.827 0 0 0 2.913-.558 6.15 6.15 0 0 0 3.509-3.503c.35-.932.538-1.914.558-2.91.058-1.28.075-1.685.075-4.936 0-3.25 0-3.663-.075-4.937a8.746 8.746 0 0 0-.56-2.95zm-1.623 12.684a6.702 6.702 0 0 1-.415 2.246 3.972 3.972 0 0 1-2.281 2.277 6.653 6.653 0 0 1-2.226.414c-1.266.058-1.623.073-4.87.073-3.249 0-3.58 0-4.87-.073a6.621 6.621 0 0 1-2.225-.414 3.979 3.979 0 0 1-2.291-2.277 6.75 6.75 0 0 1-.415-2.22c-.057-1.265-.07-1.621-.07-4.863 0-3.243 0-3.574.07-4.864a6.695 6.695 0 0 1 .415-2.244 3.977 3.977 0 0 1 2.29-2.279 6.686 6.686 0 0 1 2.225-.413c1.268-.058 1.623-.074 4.871-.074s3.581 0 4.87.074c.76.009 1.513.149 2.226.413a3.987 3.987 0 0 1 2.281 2.279 6.75 6.75 0 0 1 .415 2.22c.057 1.266.072 1.621.072 4.864 0 3.242 0 3.59-.057 4.862h-.015v-.001z" fill="#fff"/></svg>
